lib/icons/delete-small.svg

<svg width="12" height="12" viewBox="0 0 12 12" fill="none" xmlns="http://www.w3.org/2000/svg">
<path fill-rule="evenodd" clip-rule="evenodd" d="M3.07242 0.5C3.07242 0.223858 3.29628 0 3.57242 0H8.4276C8.70374 0 8.9276 0.223858 8.9276 0.5V2C8.9276 2.06139 8.91653 2.1202 8.89629 2.17454L11.4987 2.17454C11.7749 2.17454 11.9987 2.3984 11.9987 2.67454C11.9987 2.95068 11.7749 3.17454 11.4987 3.17454H10.5302C10.5723 3.24783 10.5964 3.33281 10.5964 3.42342V10.4996C10.5964 11.3281 9.92486 11.9996 9.09643 11.9996H2.83582C2.00739 11.9996 1.33582 11.3281 1.33582 10.4996V3.42342C1.33582 3.33281 1.35992 3.24783 1.40206 3.17454H0.501251C0.225109 3.17454 0.00125122 2.95068 0.00125122 2.67454C0.00125122 2.3984 0.225109 2.17454 0.501251 2.17454L3.10373 2.17454C3.08348 2.1202 3.07242 2.06139 3.07242 2V0.5ZM2.26957 3.17454C2.31171 3.24783 2.33582 3.33281 2.33582 3.42342V10.4996C2.33582 10.7758 2.55967 10.9996 2.83582 10.9996H9.09643C9.37257 10.9996 9.59643 10.7758 9.59643 10.4996V3.42342C9.59643 3.33281 9.62053 3.24783 9.66267 3.17454L2.26957 3.17454ZM7.9276 2C7.9276 2.06139 7.93866 2.1202 7.95891 2.17454L4.04111 2.17454C4.06135 2.1202 4.07242 2.06139 4.07242 2V1H7.9276V2Z" fill="#7A859E"/>
</svg>

<svg width="12" height="12" fill="none" xmlns="http://www.w3.org/2000/svg"><path fill-rule="evenodd" clip-rule="evenodd" d="M3.072.5a.5.5 0 0 1 .5-.5h4.856a.5.5 0 0 1 .5.5V2a.5.5 0 0 1-.032.175H11.5a.5.5 0 1 1 0 1h-.969a.498.498 0 0 1 .066.248V10.5a1.5 1.5 0 0 1-1.5 1.5h-6.26a1.5 1.5 0 0 1-1.5-1.5V3.423c0-.09.024-.175.066-.248h-.9a.5.5 0 0 1 0-1h2.602A.499.499 0 0 1 3.072 2V.5ZM2.27 3.175a.498.498 0 0 1 .066.248V10.5a.5.5 0 0 0 .5.5h6.26a.5.5 0 0 0 .5-.5V3.423c0-.09.025-.175.067-.248H2.27ZM7.928 2c0 .061.01.12.03.175H4.042A.5.5 0 0 0 4.072 2V1h3.856v1Z" fill="#7A859E"/></svg>
